X:1
T:Seeking the Lost (Buchanan)
T:Adoniram Judson Buchanan, 1889
T:Seeking the Lost (Buchanan)
T:Public Domain
T:Public Domain
T:Public Domain
C:Adoniram Judson Buchanan, 1889
Z:Public Domain
%%score ( 1 2 ) ( 3 4 )
L:1/8
M:4/4
K:G
V:1 treble 
V:2 treble 
V:3 bass 
V:4 bass 
V:1
 [DG]>[DA] | [GB]2 (B>A) G2 [DG]>[DB] | [Gd]2 [Ge]2 [Gd]2 [GB]>[DA] | [DG]2 [DG]>[DG] [DG]2 [GB]2 | %4
w: 1.~Will you|go and * speak to the|here To the ones who|have gone a- stray? Will|
w: 2.~Will you|go and * speak to the|blind And who walk in|the mid- night gloom? Will|
w: 3.~Will you|tell them * all if they|lieve That their souls will|be tru- ly blest? For|
w: 4.~Will you|go and * tell them the|died And pro- vid- ed|for them the way? If|
 [FA]6 [DG]>[DA] | [GB]2 (B>A) G2 [DG]>[DB] | [Gd]2 [Ge]2 [Gd]2 [DG]>[DA] | [DB]2 D>D [GB]2 [FA]2 | %8
w: you lead them|back to * the Shep- herd’s|their wand- ’rings in sin’s|dark way? * * *|
w: you bear some|light to * their dark- ened|you tell them their com-|ing doom? Will you seek|
w: the Sav- ior|said that * they shall re-|cious bless- ings of peace|and rest. * * *|
w: they full- y|trust in * the Cru- ci-|will par- don their sins|to- day. * * *|
 G6 ||"^Refrain" G>[GB] | (G2 G2 dB) (G>[Ge]) | (G2 G2 G2) [DG]>[DA] | (G2 G>G BA) G>[GB] | %13
w: |||||
w: Will|show them|way? * * * Some *|lost, * * * That|might * * * * lead home,|
w: |||||
w: |||||
 (F2 F>F F2) ([DG]>[DA]) | [GB]2 [GB]>[GA] G2 [DG]>[DB] | [Gd]2 [Ge]2 [Gd]2 [DG]>[DA] | %16
w: |||
w: land * * * of *|fect day. * * * *||
w: |||
w: |||
 [DB]2 D>D [GB]2 [FA]2 | G6 |] %18
w: ||
w: ||
w: ||
w: ||
V:2
 x2 | x2 G2 G2 x2 | x8 | x8 | x8 | x2 G2 G2 x2 | x8 | x2 D>D x4 | G6 || G3/2 x/ | d4- G2 G3/2 x/ | %11
w: |lost ones||||fold From||||||
w: |sin- ners||||mind? Will||them now?|you|the|one may be|
w: |will be-||||ceive Pre-||||||
w: |Sav- ior||||fied He||||||
 d6 x2 | B4- G2 G3/2 x/ | A6 x2 | x4 G2 x2 | x8 | x2 D>D x4 | G6 |] %18
w: |||||||
w: you|To that bright|per-|||||
w: |||||||
w: |||||||
V:3
 [G,B,]>[G,C] | [G,D]2 (D>C) [G,B,]2 [G,B,]>[G,B,] | [G,B,]2 [G,C]2 [G,B,]2 [G,D]>[G,C] | %3
w: ~ ~|~ ~ * ~ ~ ~|~ ~ ~ ~ ~|
 [G,B,]2 [G,B,]>[G,B,] [G,B,]2 [G,D]2 | [D,D]6 [G,B,]>[G,C] | [G,D]2 (D>C) [G,B,]2 [G,B,]>[G,B,] | %6
w: ~ ~ ~ ~ ~|~ ~ ~|~ ~ * ~ ~ ~|
 [G,B,]2 [G,C]2 [G,B,]2 [B,,G,]>[C,G,] | [D,G,]2 [D,B,]>[D,B,] [D,D]2 [D,C]2 | [G,,B,]6 || %9
w: ~ ~ ~ ~ ~|~ ~ ~ ~ Will|you|
 [G,B,]>[G,B,] | [G,B,]2 [G,B,]2 [G,B,]2 [G,B,]>[G,C] | [G,B,]2 [G,B,]2 [G,B,]2 [G,B,]>[G,C] | %12
w: seek them|now, Will you seek them|now? Will you show them|
 [G,D]2 [G,D]>[G,D] [G,D]2 [G,B,]>[G,D] | [D,D]2 [D,D]>[D,D] [D,D]2 ([G,B,]>[G,C]) | %14
w: the way? Will you show them|the way? * * * *|
 [G,D]2 [G,D]>[G,C] [G,B,]2 [G,B,]>[G,B,] | [G,B,]2 [G,C]2 [G,B,]2 [B,,G,]>[C,G,] | %16
w: ||
 [D,G,]2 [D,B,]>[D,B,] [D,D]2 [D,C]2 | [G,,B,]6 |] %18
w: ||
V:4
 x2 | x2 G,2 x4 | x8 | x8 | x8 | x2 G,2 x4 | x8 | x8 | x6 || x2 | x8 | x8 | x8 | x8 | x8 | x8 | %16
w: |~||||~|||||||||||
 x8 | x6 |] %18
w: ||

